TGraph/docu_c47.svg

<svg xmlns="http://www.w3.org/2000/svg" viewBox="0 0 1200 800" preserveAspectRatio="none" width="1200" height="800">
 <path d="M0,0H1200V800H0Z" style="fill: white;"></path>
 <g>
  <svg viewBox="0 0 1176 384" preserveAspectRatio="none" x="12" y="8" width="1176" height="384">
   <path d="M0,0H1176V384H0Z" style="fill: white;"></path>
   <g>
    <g transform="translate(118,38)">
     <path d="M0,0H941V307H0Z" style="fill: white; stroke: black; stroke-width: 1;"></path>
     <svg x="0" y="0" overflow="hidden" width="941" height="307" viewBox="0 0 941 307">
      <g>
       <g transform="translate(0,281)">
        <path d="M-21,-128h43v128h-43z" style="fill: #7d99d1;"></path>
       </g>
       <g transform="translate(45,250)">
        <path d="M-21,-97h43v97h-43z" style="fill: #7d99d1;"></path>
       </g>
       <g transform="translate(90,220)">
        <path d="M-21,-67h43v67h-43z" style="fill: #7d99d1;"></path>
       </g>
       <g transform="translate(135,192)">
        <path d="M-21,-39h43v39h-43z" style="fill: #7d99d1;"></path>
       </g>
       <g transform="translate(180,165)">
        <path d="M-21,-12h43v12h-43z" style="fill: #7d99d1;"></path>
       </g>
       <g transform="translate(225,139)">
        <path d="M-21,0h43v14h-43z" style="fill: #7d99d1;"></path>
       </g>
       <g transform="translate(270,116)">
        <path d="M-21,0h43v37h-43z" style="fill: #7d99d1;"></path>
       </g>
       <g transform="translate(315,95)">
        <path d="M-21,0h43v58h-43z" style="fill: #7d99d1;"></path>
       </g>
       <g transform="translate(360,76)">
        <path d="M-21,0h43v77h-43z" style="fill: #7d99d1;"></path>
       </g>
       <g transform="translate(405,60)">
        <path d="M-21,0h43v93h-43z" style="fill: #7d99d1;"></path>
       </g>
       <g transform="translate(450,47)">
        <path d="M-21,0h43v106h-43z" style="fill: #7d99d1;"></path>
       </g>
       <g transform="translate(495,37)">
        <path d="M-21,0h43v116h-43z" style="fill: #7d99d1;"></path>
       </g>
       <g transform="translate(540,30)">
        <path d="M-21,0h43v123h-43z" style="fill: #7d99d1;"></path>
       </g>
       <g transform="translate(585,26)">
        <path d="M-21,0h43v127h-43z" style="fill: #7d99d1;"></path>
       </g>
       <g transform="translate(630,26)">
        <path d="M-21,0h43v127h-43z" style="fill: #7d99d1;"></path>
       </g>
       <g transform="translate(675,28)">
        <path d="M-21,0h43v125h-43z" style="fill: #7d99d1;"></path>
       </g>
       <g transform="translate(720,34)">
        <path d="M-21,0h43v119h-43z" style="fill: #7d99d1;"></path>
       </g>
       <g transform="translate(765,43)">
        <path d="M-21,0h43v110h-43z" style="fill: #7d99d1;"></path>
       </g>
       <g transform="translate(810,54)">
        <path d="M-21,0h43v99h-43z" style="fill: #7d99d1;"></path>
       </g>
       <g transform="translate(855,69)">
        <path d="M-21,0h43v84h-43z" style="fill: #7d99d1;"></path>
       </g>
      </g>
     </svg>
     <g>
      <g transform="translate(0,307)">
       <path d="M0,0h941M0,-12v12m23,-6v6m22,-6v6m23,-6v6m22,-12v12m23,-6v6m22,-6v6m23,-6v6m22,-12v12m23,-6v6m22,-6v6m23,-6v6m22,-12v12m23,-6v6m22,-6v6m23,-6v6m22,-12v12m23,-6v6m22,-6v6m23,-6v6m22,-12v12m23,-6v6m22,-6v6m23,-6v6m22,-12v12m23,-6v6m22,-6v6m23,-6v6m22,-12v12m23,-6v6m22,-6v6m23,-6v6m22,-12v12m23,-6v6m22,-6v6m23,-6v6m22,-12v12m23,-6v6m22,-6v6m23,-6v6m22,-12v12m23,-6v6" style="stroke: black; stroke-width: 1;"></path>
       <g font-family="Arial" font-size="13" space="preserve" fill="black" text-anchor="middle">
        <text dy=".8em" transform="translate(0,4)">
         0
        </text>
        <text dy=".8em" transform="translate(90,4)">
         0.2
        </text>
        <text dy=".8em" transform="translate(180,4)">
         0.4
        </text>
        <text dy=".8em" transform="translate(270,4)">
         0.6
        </text>
        <text dy=".8em" transform="translate(360,4)">
         0.8
        </text>
        <text dy=".8em" transform="translate(450,4)">
         1
        </text>
        <text dy=".8em" transform="translate(540,4)">
         1.2
        </text>
        <text dy=".8em" transform="translate(630,4)">
         1.4
        </text>
        <text dy=".8em" transform="translate(720,4)">
         1.6
        </text>
        <text dy=".8em" transform="translate(810,4)">
         1.8
        </text>
        <text dy=".8em" transform="translate(900,4)">
         2
        </text>
       </g>
      </g>
      <g>
       <path d="M0,0v307M18,307h-18m18,-7h-18m18,-6h-18m18,-7h-18m35,-6h-35m18,-6h-18m18,-7h-18m18,-6h-18m18,-7h-18m35,-6h-35m18,-6h-18m18,-7h-18m18,-6h-18m18,-7h-18m35,-6h-35m18,-6h-18m18,-7h-18m18,-6h-18m18,-6h-18m35,-7h-35m18,-6h-18m18,-7h-18m18,-6h-18m18,-6h-18m35,-7h-35m18,-6h-18m18,-7h-18m18,-6h-18m18,-6h-18m35,-7h-35m18,-6h-18m18,-7h-18m18,-6h-18m18,-6h-18m35,-7h-35m18,-6h-18m18,-6h-18m18,-7h-18m18,-6h-18m35,-7h-35m18,-6h-18m18,-6h-18m18,-7h-18m18,-6h-18m35,-7h-35m18,-6h-18m18,-6h-18m18,-7h-18" style="stroke: black; stroke-width: 1;"></path>
       <g font-family="Arial" font-size="13" space="preserve" fill="black" text-anchor="end">
        <text dy=".4em" transform="translate(-2,281)">
         -4
        </text>
        <text dy=".4em" transform="translate(-2,249)">
         -3
        </text>
        <text dy=".4em" transform="translate(-2,217)">
         -2
        </text>
        <text dy=".4em" transform="translate(-2,185)">
         -1
        </text>
        <text dy=".4em" transform="translate(-2,153)">
         0
        </text>
        <text dy=".4em" transform="translate(-2,121)">
         1
        </text>
        <text dy=".4em" transform="translate(-2,89)">
         2
        </text>
        <text dy=".4em" transform="translate(-2,57)">
         3
        </text>
        <text dy=".4em" transform="translate(-2,25)">
         4
        </text>
       </g>
      </g>
     </g>
    </g>
    <g transform="translate(118,2)" font-family="Arial" font-size="19" space="preserve">
     <text fill="black" text-anchor="middle" dy=".8em" transform="translate(471)">
      Graph
     </text>
    </g>
   </g>
  </svg>
  <svg viewBox="0 0 1176 384" preserveAspectRatio="none" x="12" y="408" width="1176" height="384">
   <path d="M0,0H1176V384H0Z" style="fill: white;"></path>
   <g>
    <g transform="translate(118,38)">
     <path d="M0,0H941V307H0Z" style="fill: white; stroke: black; stroke-width: 1;"></path>
     <svg x="0" y="0" overflow="hidden" width="941" height="307" viewBox="0 0 941 307">
      <g>
       <g transform="translate(0,281)">
        <path d="M-21,0h43v26h-43z" style="fill: #7d99d1;"></path>
       </g>
       <g transform="translate(45,250)">
        <path d="M-21,0h43v57h-43z" style="fill: #7d99d1;"></path>
       </g>
       <g transform="translate(90,220)">
        <path d="M-21,0h43v87h-43z" style="fill: #7d99d1;"></path>
       </g>
       <g transform="translate(135,192)">
        <path d="M-21,0h43v115h-43z" style="fill: #7d99d1;"></path>
       </g>
       <g transform="translate(180,165)">
        <path d="M-21,0h43v142h-43z" style="fill: #7d99d1;"></path>
       </g>
       <g transform="translate(225,139)">
        <path d="M-21,0h43v168h-43z" style="fill: #7d99d1;"></path>
       </g>
       <g transform="translate(270,116)">
        <path d="M-21,0h43v191h-43z" style="fill: #7d99d1;"></path>
       </g>
       <g transform="translate(315,95)">
        <path d="M-21,0h43v212h-43z" style="fill: #7d99d1;"></path>
       </g>
       <g transform="translate(360,76)">
        <path d="M-21,0h43v231h-43z" style="fill: #7d99d1;"></path>
       </g>
       <g transform="translate(405,60)">
        <path d="M-21,0h43v247h-43z" style="fill: #7d99d1;"></path>
       </g>
       <g transform="translate(450,47)">
        <path d="M-21,0h43v260h-43z" style="fill: #7d99d1;"></path>
       </g>
       <g transform="translate(495,37)">
        <path d="M-21,0h43v270h-43z" style="fill: #7d99d1;"></path>
       </g>
       <g transform="translate(540,30)">
        <path d="M-21,0h43v277h-43z" style="fill: #7d99d1;"></path>
       </g>
       <g transform="translate(585,26)">
        <path d="M-21,0h43v281h-43z" style="fill: #7d99d1;"></path>
       </g>
       <g transform="translate(630,26)">
        <path d="M-21,0h43v281h-43z" style="fill: #7d99d1;"></path>
       </g>
       <g transform="translate(675,28)">
        <path d="M-21,0h43v279h-43z" style="fill: #7d99d1;"></path>
       </g>
       <g transform="translate(720,34)">
        <path d="M-21,0h43v273h-43z" style="fill: #7d99d1;"></path>
       </g>
       <g transform="translate(765,43)">
        <path d="M-21,0h43v264h-43z" style="fill: #7d99d1;"></path>
       </g>
       <g transform="translate(810,54)">
        <path d="M-21,0h43v253h-43z" style="fill: #7d99d1;"></path>
       </g>
       <g transform="translate(855,69)">
        <path d="M-21,0h43v238h-43z" style="fill: #7d99d1;"></path>
       </g>
      </g>
     </svg>
     <g>
      <g transform="translate(0,307)">
       <path d="M0,0h941M0,-12v12m23,-6v6m22,-6v6m23,-6v6m22,-12v12m23,-6v6m22,-6v6m23,-6v6m22,-12v12m23,-6v6m22,-6v6m23,-6v6m22,-12v12m23,-6v6m22,-6v6m23,-6v6m22,-12v12m23,-6v6m22,-6v6m23,-6v6m22,-12v12m23,-6v6m22,-6v6m23,-6v6m22,-12v12m23,-6v6m22,-6v6m23,-6v6m22,-12v12m23,-6v6m22,-6v6m23,-6v6m22,-12v12m23,-6v6m22,-6v6m23,-6v6m22,-12v12m23,-6v6m22,-6v6m23,-6v6m22,-12v12m23,-6v6" style="stroke: black; stroke-width: 1;"></path>
       <g font-family="Arial" font-size="13" space="preserve" fill="black" text-anchor="middle">
        <text dy=".8em" transform="translate(0,4)">
         0
        </text>
        <text dy=".8em" transform="translate(90,4)">
         0.2
        </text>
        <text dy=".8em" transform="translate(180,4)">
         0.4
        </text>
        <text dy=".8em" transform="translate(270,4)">
         0.6
        </text>
        <text dy=".8em" transform="translate(360,4)">
         0.8
        </text>
        <text dy=".8em" transform="translate(450,4)">
         1
        </text>
        <text dy=".8em" transform="translate(540,4)">
         1.2
        </text>
        <text dy=".8em" transform="translate(630,4)">
         1.4
        </text>
        <text dy=".8em" transform="translate(720,4)">
         1.6
        </text>
        <text dy=".8em" transform="translate(810,4)">
         1.8
        </text>
        <text dy=".8em" transform="translate(900,4)">
         2
        </text>
       </g>
      </g>
      <g>
       <path d="M0,0v307M18,307h-18m18,-7h-18m18,-6h-18m18,-7h-18m35,-6h-35m18,-6h-18m18,-7h-18m18,-6h-18m18,-7h-18m35,-6h-35m18,-6h-18m18,-7h-18m18,-6h-18m18,-7h-18m35,-6h-35m18,-6h-18m18,-7h-18m18,-6h-18m18,-6h-18m35,-7h-35m18,-6h-18m18,-7h-18m18,-6h-18m18,-6h-18m35,-7h-35m18,-6h-18m18,-7h-18m18,-6h-18m18,-6h-18m35,-7h-35m18,-6h-18m18,-7h-18m18,-6h-18m18,-6h-18m35,-7h-35m18,-6h-18m18,-6h-18m18,-7h-18m18,-6h-18m35,-7h-35m18,-6h-18m18,-6h-18m18,-7h-18m18,-6h-18m35,-7h-35m18,-6h-18m18,-6h-18m18,-7h-18" style="stroke: black; stroke-width: 1;"></path>
       <g font-family="Arial" font-size="13" space="preserve" fill="black" text-anchor="end">
        <text dy=".4em" transform="translate(-2,281)">
         -4
        </text>
        <text dy=".4em" transform="translate(-2,249)">
         -3
        </text>
        <text dy=".4em" transform="translate(-2,217)">
         -2
        </text>
        <text dy=".4em" transform="translate(-2,185)">
         -1
        </text>
        <text dy=".4em" transform="translate(-2,153)">
         0
        </text>
        <text dy=".4em" transform="translate(-2,121)">
         1
        </text>
        <text dy=".4em" transform="translate(-2,89)">
         2
        </text>
        <text dy=".4em" transform="translate(-2,57)">
         3
        </text>
        <text dy=".4em" transform="translate(-2,25)">
         4
        </text>
       </g>
      </g>
     </g>
    </g>
    <g transform="translate(118,2)" font-family="Arial" font-size="19" space="preserve">
     <text fill="black" text-anchor="middle" dy=".8em" transform="translate(471)">
      Graph
     </text>
    </g>
   </g>
  </svg>
 </g>
</svg>

<svg xmlns="http://www.w3.org/2000/svg" viewBox="0 0 1200 800" preserveAspectRatio="none" width="1200" height="800">
 <path d="M0,0H1200V800H0Z" style="fill: white;"></path>
 <g>
  <svg viewBox="0 0 1176 384" preserveAspectRatio="none" x="12" y="8" width="1176" height="384">
   <path d="M0,0H1176V384H0Z" style="fill: white;"></path>
   <g>
    <g transform="translate(118,38)">
     <path d="M0,0H941V307H0Z" style="fill: white; stroke: black; stroke-width: 1;"></path>
     <svg x="0" y="0" overflow="hidden" width="941" height="307" viewBox="0 0 941 307">
      <g>
       <g transform="translate(0,281)">
        <path d="M-21,-128h43v128h-43z" style="fill: #7d99d1;"></path>
       </g>
       <g transform="translate(45,250)">
        <path d="M-21,-97h43v97h-43z" style="fill: #7d99d1;"></path>
       </g>
       <g transform="translate(90,220)">
        <path d="M-21,-67h43v67h-43z" style="fill: #7d99d1;"></path>
       </g>
       <g transform="translate(135,192)">
        <path d="M-21,-39h43v39h-43z" style="fill: #7d99d1;"></path>
       </g>
       <g transform="translate(180,165)">
        <path d="M-21,-12h43v12h-43z" style="fill: #7d99d1;"></path>
       </g>
       <g transform="translate(225,139)">
        <path d="M-21,0h43v14h-43z" style="fill: #7d99d1;"></path>
       </g>
       <g transform="translate(270,116)">
        <path d="M-21,0h43v37h-43z" style="fill: #7d99d1;"></path>
       </g>
       <g transform="translate(315,95)">
        <path d="M-21,0h43v58h-43z" style="fill: #7d99d1;"></path>
       </g>
       <g transform="translate(360,76)">
        <path d="M-21,0h43v77h-43z" style="fill: #7d99d1;"></path>
       </g>
       <g transform="translate(405,60)">
        <path d="M-21,0h43v93h-43z" style="fill: #7d99d1;"></path>
       </g>
       <g transform="translate(450,47)">
        <path d="M-21,0h43v106h-43z" style="fill: #7d99d1;"></path>
       </g>
       <g transform="translate(495,37)">
        <path d="M-21,0h43v116h-43z" style="fill: #7d99d1;"></path>
       </g>
       <g transform="translate(540,30)">
        <path d="M-21,0h43v123h-43z" style="fill: #7d99d1;"></path>
       </g>
       <g transform="translate(585,26)">
        <path d="M-21,0h43v127h-43z" style="fill: #7d99d1;"></path>
       </g>
       <g transform="translate(630,26)">
        <path d="M-21,0h43v127h-43z" style="fill: #7d99d1;"></path>
       </g>
       <g transform="translate(675,28)">
        <path d="M-21,0h43v125h-43z" style="fill: #7d99d1;"></path>
       </g>
       <g transform="translate(720,34)">
        <path d="M-21,0h43v119h-43z" style="fill: #7d99d1;"></path>
       </g>
       <g transform="translate(765,43)">
        <path d="M-21,0h43v110h-43z" style="fill: #7d99d1;"></path>
       </g>
       <g transform="translate(810,54)">
        <path d="M-21,0h43v99h-43z" style="fill: #7d99d1;"></path>
       </g>
       <g transform="translate(855,69)">
        <path d="M-21,0h43v84h-43z" style="fill: #7d99d1;"></path>
       </g>
      </g>
     </svg>
     <g>
      <g transform="translate(0,307)">
       <path d="M0,0h941M0,-12V0M23,-6V0M45,-6V0M68,-6V0M90,-12V0M113,-6V0M135,-6V0M158,-6V0M180,-12V0M203,-6V0M225,-6V0M248,-6V0M270,-12V0M293,-6V0M315,-6V0M338,-6V0M360,-12V0M383,-6V0M405,-6V0M428,-6V0M450,-12V0M473,-6V0M495,-6V0M518,-6V0M540,-12V0M563,-6V0M585,-6V0M608,-6V0M630,-12V0M653,-6V0M675,-6V0M698,-6V0M720,-12V0M743,-6V0M765,-6V0M788,-6V0M810,-12V0M833,-6V0M855,-6V0M878,-6V0M900,-12V0M923,-6V0" style="stroke: black; stroke-width: 1;"></path>
       <g font-family="Arial" font-size="13" space="preserve" fill="black" text-anchor="middle">
        <text dy=".8em" transform="translate(0,4)">
         0
        </text>
        <text dy=".8em" transform="translate(90,4)">
         0.2
        </text>
        <text dy=".8em" transform="translate(180,4)">
         0.4
        </text>
        <text dy=".8em" transform="translate(270,4)">
         0.6
        </text>
        <text dy=".8em" transform="translate(360,4)">
         0.8
        </text>
        <text dy=".8em" transform="translate(450,4)">
         1
        </text>
        <text dy=".8em" transform="translate(540,4)">
         1.2
        </text>
        <text dy=".8em" transform="translate(630,4)">
         1.4
        </text>
        <text dy=".8em" transform="translate(720,4)">
         1.6
        </text>
        <text dy=".8em" transform="translate(810,4)">
         1.8
        </text>
        <text dy=".8em" transform="translate(900,4)">
         2
        </text>
       </g>
      </g>
      <g>
       <path d="M0,0v307M18,307H0M18,300H0M18,294H0M18,287H0M35,281H0M18,275H0M18,268H0M18,262H0M18,255H0M35,249H0M18,243H0M18,236H0M18,230H0M18,223H0M35,217H0M18,211H0M18,204H0M18,198H0M18,192H0M35,185H0M18,179H0M18,172H0M18,166H0M18,160H0M35,153H0M18,147H0M18,140H0M18,134H0M18,128H0M35,121H0M18,115H0M18,108H0M18,102H0M18,96H0M35,89H0M18,83H0M18,77H0M18,70H0M18,64H0M35,57H0M18,51H0M18,45H0M18,38H0M18,32H0M35,25H0M18,19H0M18,13H0M18,6H0" style="stroke: black; stroke-width: 1;"></path>
       <g font-family="Arial" font-size="13" space="preserve" fill="black" text-anchor="end">
        <text dy=".4em" transform="translate(-2,281)">
         -4
        </text>
        <text dy=".4em" transform="translate(-2,249)">
         -3
        </text>
        <text dy=".4em" transform="translate(-2,217)">
         -2
        </text>
        <text dy=".4em" transform="translate(-2,185)">
         -1
        </text>
        <text dy=".4em" transform="translate(-2,153)">
         0
        </text>
        <text dy=".4em" transform="translate(-2,121)">
         1
        </text>
        <text dy=".4em" transform="translate(-2,89)">
         2
        </text>
        <text dy=".4em" transform="translate(-2,57)">
         3
        </text>
        <text dy=".4em" transform="translate(-2,25)">
         4
        </text>
       </g>
      </g>
     </g>
    </g>
    <g transform="translate(118,2)" font-family="Arial" font-size="19" space="preserve">
     <text fill="black" text-anchor="middle" dy=".8em" transform="translate(471)">
      Graph
     </text>
    </g>
   </g>
  </svg>
  <svg viewBox="0 0 1176 384" preserveAspectRatio="none" x="12" y="408" width="1176" height="384">
   <path d="M0,0H1176V384H0Z" style="fill: white;"></path>
   <g>
    <g transform="translate(118,38)">
     <path d="M0,0H941V307H0Z" style="fill: white; stroke: black; stroke-width: 1;"></path>
     <svg x="0" y="0" overflow="hidden" width="941" height="307" viewBox="0 0 941 307">
      <g>
       <g transform="translate(0,281)">
        <path d="M-21,0h43v26h-43z" style="fill: #7d99d1;"></path>
       </g>
       <g transform="translate(45,250)">
        <path d="M-21,0h43v57h-43z" style="fill: #7d99d1;"></path>
       </g>
       <g transform="translate(90,220)">
        <path d="M-21,0h43v87h-43z" style="fill: #7d99d1;"></path>
       </g>
       <g transform="translate(135,192)">
        <path d="M-21,0h43v115h-43z" style="fill: #7d99d1;"></path>
       </g>
       <g transform="translate(180,165)">
        <path d="M-21,0h43v142h-43z" style="fill: #7d99d1;"></path>
       </g>
       <g transform="translate(225,139)">
        <path d="M-21,0h43v168h-43z" style="fill: #7d99d1;"></path>
       </g>
       <g transform="translate(270,116)">
        <path d="M-21,0h43v191h-43z" style="fill: #7d99d1;"></path>
       </g>
       <g transform="translate(315,95)">
        <path d="M-21,0h43v212h-43z" style="fill: #7d99d1;"></path>
       </g>
       <g transform="translate(360,76)">
        <path d="M-21,0h43v231h-43z" style="fill: #7d99d1;"></path>
       </g>
       <g transform="translate(405,60)">
        <path d="M-21,0h43v247h-43z" style="fill: #7d99d1;"></path>
       </g>
       <g transform="translate(450,47)">
        <path d="M-21,0h43v260h-43z" style="fill: #7d99d1;"></path>
       </g>
       <g transform="translate(495,37)">
        <path d="M-21,0h43v270h-43z" style="fill: #7d99d1;"></path>
       </g>
       <g transform="translate(540,30)">
        <path d="M-21,0h43v277h-43z" style="fill: #7d99d1;"></path>
       </g>
       <g transform="translate(585,26)">
        <path d="M-21,0h43v281h-43z" style="fill: #7d99d1;"></path>
       </g>
       <g transform="translate(630,26)">
        <path d="M-21,0h43v281h-43z" style="fill: #7d99d1;"></path>
       </g>
       <g transform="translate(675,28)">
        <path d="M-21,0h43v279h-43z" style="fill: #7d99d1;"></path>
       </g>
       <g transform="translate(720,34)">
        <path d="M-21,0h43v273h-43z" style="fill: #7d99d1;"></path>
       </g>
       <g transform="translate(765,43)">
        <path d="M-21,0h43v264h-43z" style="fill: #7d99d1;"></path>
       </g>
       <g transform="translate(810,54)">
        <path d="M-21,0h43v253h-43z" style="fill: #7d99d1;"></path>
       </g>
       <g transform="translate(855,69)">
        <path d="M-21,0h43v238h-43z" style="fill: #7d99d1;"></path>
       </g>
      </g>
     </svg>
     <g>
      <g transform="translate(0,307)">
       <path d="M0,0h941M0,-12V0M23,-6V0M45,-6V0M68,-6V0M90,-12V0M113,-6V0M135,-6V0M158,-6V0M180,-12V0M203,-6V0M225,-6V0M248,-6V0M270,-12V0M293,-6V0M315,-6V0M338,-6V0M360,-12V0M383,-6V0M405,-6V0M428,-6V0M450,-12V0M473,-6V0M495,-6V0M518,-6V0M540,-12V0M563,-6V0M585,-6V0M608,-6V0M630,-12V0M653,-6V0M675,-6V0M698,-6V0M720,-12V0M743,-6V0M765,-6V0M788,-6V0M810,-12V0M833,-6V0M855,-6V0M878,-6V0M900,-12V0M923,-6V0" style="stroke: black; stroke-width: 1;"></path>
       <g font-family="Arial" font-size="13" space="preserve" fill="black" text-anchor="middle">
        <text dy=".8em" transform="translate(0,4)">
         0
        </text>
        <text dy=".8em" transform="translate(90,4)">
         0.2
        </text>
        <text dy=".8em" transform="translate(180,4)">
         0.4
        </text>
        <text dy=".8em" transform="translate(270,4)">
         0.6
        </text>
        <text dy=".8em" transform="translate(360,4)">
         0.8
        </text>
        <text dy=".8em" transform="translate(450,4)">
         1
        </text>
        <text dy=".8em" transform="translate(540,4)">
         1.2
        </text>
        <text dy=".8em" transform="translate(630,4)">
         1.4
        </text>
        <text dy=".8em" transform="translate(720,4)">
         1.6
        </text>
        <text dy=".8em" transform="translate(810,4)">
         1.8
        </text>
        <text dy=".8em" transform="translate(900,4)">
         2
        </text>
       </g>
      </g>
      <g>
       <path d="M0,0v307M18,307H0M18,300H0M18,294H0M18,287H0M35,281H0M18,275H0M18,268H0M18,262H0M18,255H0M35,249H0M18,243H0M18,236H0M18,230H0M18,223H0M35,217H0M18,211H0M18,204H0M18,198H0M18,192H0M35,185H0M18,179H0M18,172H0M18,166H0M18,160H0M35,153H0M18,147H0M18,140H0M18,134H0M18,128H0M35,121H0M18,115H0M18,108H0M18,102H0M18,96H0M35,89H0M18,83H0M18,77H0M18,70H0M18,64H0M35,57H0M18,51H0M18,45H0M18,38H0M18,32H0M35,25H0M18,19H0M18,13H0M18,6H0" style="stroke: black; stroke-width: 1;"></path>
       <g font-family="Arial" font-size="13" space="preserve" fill="black" text-anchor="end">
        <text dy=".4em" transform="translate(-2,281)">
         -4
        </text>
        <text dy=".4em" transform="translate(-2,249)">
         -3
        </text>
        <text dy=".4em" transform="translate(-2,217)">
         -2
        </text>
        <text dy=".4em" transform="translate(-2,185)">
         -1
        </text>
        <text dy=".4em" transform="translate(-2,153)">
         0
        </text>
        <text dy=".4em" transform="translate(-2,121)">
         1
        </text>
        <text dy=".4em" transform="translate(-2,89)">
         2
        </text>
        <text dy=".4em" transform="translate(-2,57)">
         3
        </text>
        <text dy=".4em" transform="translate(-2,25)">
         4
        </text>
       </g>
      </g>
     </g>
    </g>
    <g transform="translate(118,2)" font-family="Arial" font-size="19" space="preserve">
     <text fill="black" text-anchor="middle" dy=".8em" transform="translate(471)">
      Graph
     </text>
    </g>
   </g>
  </svg>
 </g>
</svg>
